X:1
T:Beethoven - Sonata 27, Mvt.2.
%%score { ( 1 3 ) | ( 2 4 ) }
L:1/8
Q:1/4=65
M:2/4
K:E
V:1 treble nm="Piano" snm="Pno."
V:3 treble 
V:2 bass 
V:4 bass 
V:1
!p!"_dolce""^Nicht  zu  geschwind  und  sehr  singbar  vorzutragen." (E/F/ | G2 BA | GF) (.F.G) | %3
 (AcBF | [B,EG]2) z (e/f/ | [Gg]2 [Bb][Aa] | [Gg][Ff]) (.[Ff].[Gg]) | %7
"_cresc." ([Aa][cc']!p![Bb])!p! !wedge![dd'] | !wedge![ee']2 z (B | ^A2 e2 | d3) (=A | G2 =d2 | %12
 c3)"_cresc." (c | ^Bc) (.[CEA].[=B,EG]) | G F2!mp! F |!p! FB^AB | E3 ([Bb] | [^A^a]2 [ee']2 | %18
 [dd']3) ([=A=a] | [Gg]2 [=d=d']2 | [cc']3)"_cresc." ([cc'] | [^B^b][cc']) (.[Aa].[Gg]) | %22
 ([Gg] [Ff]2)!mp! ([Ff] |!p! [Ff][Bb][^A^a][Bb] | [Ee]2)"_tenermente" z (E/F/ | G2 BA | %26
 GF) (.F.G) | (AcBF | [B,EG]) z"_cresc."{/f} (e/d/e/f/ |{/a} g/f/g/a/!mp!!>(! [Bb][Aa]!>)! | %30
!p!"_cresc." [Gg][Ff]) (.[Ff].[Gg]) | ([Aa][cc'][Bb])!f! !wedge![dad'] | %32
 !wedge![ege']2 z !wedge![EG] | !>![EG]3!p! !wedge![EGe] | [DFGd]3!f! !wedge![DFG] | %35
 !>![DFG]3!p! !wedge![DFd] | [EGe]3!f! !wedge![EG] | !>![EG]3!p! !wedge![EGe] | %38
 [EFe]3!f! !wedge![CE] | !>![B,E]3 !>!!wedge![EBe] | [E^Ace] z z2 | %41
!p![Q:1/4=70]!<(! ([ec']3 [db])!<)! |!mp!!>(! ([db][c^a])([ca][db])!>)! |!p!!<(! ([ec']3 [db] | %44
 [c^a]!<)!!mp!!>(![ec'][db][ca]!>)! |!pp! [fb]^agf | gfed) | (d3 e/f/ | c) (f/g/ f/g/f/g/) | %49
!<(! ([c'e']3 [bd'])!<)! |!p!!>(! ([bd'][^ac'])([ac'][bd'])!>)! |!p!!<(! ([c'e']3 [bd'] | %52
 c'g'f'e'!<)! |!mp!"_dim." d'f' e'd' | c'e' d'c' | b=agg |!pp! g/) G/^A/^B/{/d} c/B/c/d/ | %57
 e/^B/c/d/{/f} e/d/e/f/ | g/f/e/d/ e/d/c/g/ |[Q:1/4=60]!>(! d/c/=B/f/[Q:1/4=50] c/B/^A/!pp!f/!>)! | %60
[Q:1/4=65]"_dolce"!p! ([Fdf]4 | [Ece]2 [DBd]2 | c2 B2- | B2 ^Af) |"_cresc." ([F=Af]4 | %65
 [EAe]2 [DFAd]2 | c2"_piu"!mf! B2- |"_cresc." B2 !>!A2) |!f!!>(! A/d/f/d/ a/d'/f'/d'/!>)! | %69
!p! a'2 z/ (D/E/F/ | G2 BA | GF) (.F.G) | (AcBF | [B,EG]2) z (e/f/ | [Gg]2 [Bb][Aa] | %75
 [Gg][Ff]) (.[Ff].[Gg]) |"_cresc." ([Aa][cc']!p![Bb])!p! !wedge![dd'] | !wedge![ee']2 z (B | %78
 ^A2 e2 | d3) (=A | G2 =d2 | c3) c | z4 | z4 | z4 | z4 | z4 | z4 | z4 | z4 | z4 | z4 | z4 | z4 | %94
 z4 | z4 | z4 | z4 | z4 | z4 | z4 | z4 | z4 | z4 | z4 | z4 | z4 | z4 | z4 | z4 | z4 | z4 | z4 | %113
 z4 | z4 | z4 | z4 | z4 | z4 | z4 | z4 | z4 | z4 | z4 | z4 | z4 | z4 | z4 | z4 | z4 | z4 | z4 | %132
 z4 | z4 | z4 | z4 | z4 | z4 | z4 | z4 | z4 | z4 | z4 | z4 | z4 | z4 | z4 | z4 | z4 | z4 | z4 | %151
 z4 | z4 | z4 | z4 | z4 | z4 | z4 | z4 | z4 | z4 | z4 | z4 | z4 | z4 | z4 | z4 | z4 | z4 | z4 | %170
 z4 | z4 | z4 | z4 | z4 | z4 | z4 | z4 | z4 | z4 |] %180
V:2
 z | [E,,E,] z z2 | [B,,,B,,] z z2 | [C,,C,] z [D,,D,][B,,,B,,] | [E,,E,]/G,/B,/A,/ G,/A,/G,/F,/ | %5
 E,/B,/B,,/B,/ E,/B,/B,,/B,/ | D,/B,/B,,/B,/ D,/B,/^E,/B,/ | F,/B,/A,/B,/ G,/B,/ [B,,F,]/A,/ | %8
 [E,G,]/B,/G,/E,/ D,/B,/F,/D,/ | C,/^A,/F,/C,/ F,,/A,/F,/C,/ | B,,/B,/F,/D,/ B,,/B,/C,/=A,/ | %11
 B,,/G,/E,/B,,/ E,,/G,/E,/B,,/ | A,,/A,/E,/C,/ A,,/E,/A,,/E,/ | A,,/E,/A,,/E,/ A,,/E,/B,,/E,/ | %14
 C,/E,/C,/E,/ =C,/E,/C,/E,/ | B,,/F,/B,,/[F,A,]/ B,,/[F,A,]/B,,/[F,A,]/ | %16
 [E,G,]/B,/G,/E,/ D,/B,/F,/D,/ | C,/^A,/F,/C,/ F,,/A,/F,/C,/ | B,,/B,/F,/D,/ B,,/B,/C,/=A,/ | %19
 B,,/G,/E,/B,,/ E,,/G,/E,/B,,/ | A,,/A,/E,/C,/ A,,/E,/A,,/E,/ | %21
 G,,/E,/A,,/E,/ [A,,C,]/E,/[B,,E,]/G,/ | [C,E,]/^A,/[C,E,]/A,/ [=C,E,]/=A,/[C,E,]/A,/ | %23
 [B,,D,]/A,/[B,,D,]/A,/ [B,,D,]/A,/[B,,D,]/A,/ | [E,G,]/E,/D,/C,/ B,,/A,,/G,,/F,,/ | E,, z z2 | %26
 B,,, z z2 | C,, z D,,B,,, | E,,[K:treble] E/B,/ E/B,/E/B,/ | E/B,/E/B,/ G/B,/F/B,/ | %30
 E/B,/D/B,/ D/B,/^E/B,/ | F/B,/A/B,/ G/B,/F/B,/ |[K:bass] E/B,/G,/B,/ E, z | %33
 C/G,/E,/G,/ C, !wedge!C | ^B,/G,/D,/G,/ ^B,, !wedge!B, | G,/D,/^B,,/D,/ G,, !wedge!^B, | %36
 C/G,/E,/G,/ C, !wedge!C | =B,/G,/E,/G,/ =B,, !wedge!B, | ^A,/F,/C,/F,/ ^A,, !wedge!A,, | %39
 G,,/E,,/B,,,/E,,/ G,,, !wedge![G,,,G,,] | [F,,,F,,][K:treble]!p! (F/G/ F/G/F/G/) | %41
 (F/G/F/G/ F/G/F/G/) | (F/G/F/G/ F/G/F/G/) | (F/G/F/G/ F/G/F/G/) | (F/G/F/G/ F/G/F/G/) | %45
 F/B/F/B/ E/B/D/B/ | E/B/F/B/ G/B/^E/B/ | F/G/^A/B/ A/B/c/d/ | ^A (G/F/ G/F/G/F/) | %49
 (G/F/G/F/ G/F/G/F/) | (G/F/G/F/ G/F/G/F/) | G/F/G/F/ G/F/G/F/ | %52
 [CE]/F/[F,^A,]/F/ [G,B,]/F/[A,C]/F/ | [B,D]/F/[G,B,]/F/ [^A,C]/F/[B,D]/F/ | %54
 [CE]/F/[^A,C]/F/ [B,D]/F/[CE]/F/ | D/F/D/F/ D/F/D/F/ | [DF] z z/ G,/^A,/^B,/ | %57
 C/G,/^A,/^B,/{/D} C/B,/C/D/ | E/D/E/F/ G/F/E/^E/ | F z[K:bass] F, z | (3B,,F,D, (3B,,B,F, | %61
 (3C,^A,F, (3D,B,F, | (3E,CG, (3^E,=DG, | (3F,^DB, (3=E,C^A, | D,/B,/F,/D,/ B,,/F,/D,/B,,/ | %65
 C,/=A,/E,/C,/ D,/B,/F,/D,/ | E,/C/A,/E,/ F,/B,/A,/F,/ | F,/B,/A,/F,/ =C,/A,/F,/D,/ | %68
 =C,/A,/F,/D,/ C,/A,/F,/D,/ | B,,/A,/F,/D,/ B,,/A,/G,/F,/ | [E,,E,] z z2 | [B,,,B,,] z z2 | %72
 [C,,C,] z [D,,D,][B,,,B,,] | [E,,E,]/G,/B,/A,/ G,/A,/G,/F,/ | E,/B,/B,,/B,/ E,/B,/B,,/B,/ | %75
 D,/B,/B,,/B,/ D,/B,/^E,/B,/ | F,/B,/A,/B,/ G,/B,/ [B,,F,]/A,/ | [E,G,]/B,/G,/E,/ D,/B,/F,/D,/ | %78
 C,/^A,/F,/C,/ F,,/A,/F,/C,/ | B,,/B,/F,/D,/ B,,/B,/C,/=A,/ | B,,/G,/E,/B,,/ E,,/G,/E,/B,,/ | %81
 A,,/A,/E,/C,/ A,,/E,/A,,/E,/ | z4 | z4 | z4 | z4 | z4 | z4 | z4 | z4 | z4 | z4 | z4 | z4 | z4 | %95
 z4 | z4 | z4 | z4 | z4 | z4 | z4 | z4 | z4 | z4 | z4 | z4 | z4 | z4 | z4 | z4 | z4 | z4 | z4 | %114
 z4 | z4 | z4 | z4 | z4 | z4 | z4 | z4 | z4 | z4 | z4 | z4 | z4 | z4 | z4 | z4 | z4 | z4 | z4 | %133
 z4 | z4 | z4 | z4 | z4 | z4 | z4 | z4 | z4 | z4 | z4 | z4 | z4 | z4 | z4 | z4 | z4 | z4 | z4 | %152
 z4 | z4 | z4 | z4 | z4 | z4 | z4 | z4 | z4 | z4 | z4 | z4 | z4 | z4 | z4 | z4 | z4 | z4 | z4 | %171
 z4 | z4 | z4 | z4 | z4 | z4 | z4 | z4 | z4 |] %180
V:3
 x | E/B,/E/B,/ G/B,/F/B,/ | E/B,/D/B,/ D/B,/E/B,/ | E/B,/E/B,/ F/B,/D/B,/ | x4 | x4 | x4 | x4 | %8
 x4 | x4 | x4 | x4 | x4 | x4 | [^A,E]2 [=A,E]2 | [A,D] D2 D | x4 | x4 | x4 | x4 | x4 | x4 | x4 | %23
 x4 | x4 | E/B,/E/B,/ G/B,/F/B,/ | E/B,/D/B,/ D/B,/E/B,/ | E/B,/E/B,/ F/B,/D/B,/ | x4 | x4 | x4 | %31
 x4 | x4 | x4 | x4 | x4 | x4 | x4 | x4 | x4 | x4 | x4 | x4 | x4 | x4 | x4 | x4 | x4 | x4 | %49
 f/g/f/g/ f/g/f/g/ | f/g/f/g/ f/g/f/g/ | f/g/f/g/ f/g/f/g/ | ^a/f/e'/f/ d'/f/c'/f/ | %53
 b/f/d'/f/ c'/f/b/f/ | ^a/f/c'/f/ b/f/a/f/ | b/f/a/^B/ g/B/g/B/ | ^B/ x7/2 | x4 | x4 | x4 | x4 | %61
 x4 | G2 G2 | F2 F2 | x4 | x4 | A2 [DA]2- | [DA]2 !>![DF]2 | x4 | x4 | %70
 E/"_dolce"B,/E/B,/ G/B,/F/B,/ | E/B,/D/B,/ D/B,/E/B,/ | E/B,/E/B,/ F/B,/D/B,/ | x4 | x4 | x4 | %76
 x4 | x4 | x4 | x4 | x4 | x4 | x4 | x4 | x4 | x4 | x4 | x4 | x4 | x4 | x4 | x4 | x4 | x4 | x4 | %95
 x4 | x4 | x4 | x4 | x4 | x4 | x4 | x4 | x4 | x4 | x4 | x4 | x4 | x4 | x4 | x4 | x4 | x4 | x4 | %114
 x4 | x4 | x4 | x4 | x4 | x4 | x4 | x4 | x4 | x4 | x4 | x4 | x4 | x4 | x4 | x4 | x4 | x4 | x4 | %133
 x4 | x4 | x4 | x4 | x4 | x4 | x4 | x4 | x4 | x4 | x4 | x4 | x4 | x4 | x4 | x4 | x4 | x4 | x4 | %152
 x4 | x4 | x4 | x4 | x4 | x4 | x4 | x4 | x4 | x4 | x4 | x4 | x4 | x4 | x4 | x4 | x4 | x4 | x4 | %171
 x4 | x4 | x4 | x4 | x4 | x4 | x4 | x4 | x4 |] %180
V:4
 x | x4 | x4 | x4 | x4 | x4 | x4 | x4 | x4 | x4 | x4 | x4 | x4 | x4 | x4 | x4 | x4 | x4 | x4 | x4 | %20
 x4 | x4 | x4 | x4 | x4 | x4 | x4 | x4 | x[K:treble] x3 | x4 | x4 | x4 |[K:bass] x4 | x4 | x4 | %35
 x4 | x4 | x4 | x4 | x4 | x[K:treble] x3 | ([^A,C]3 [B,D]) | ([B,D][CE])([CE][B,D]) | %43
 [^A,C]3 [B,D] | [CE][^A,C][B,D][CE] | D x3 | x4 | F4 | F x3 | ([^A,C]3 [B,D]) | %50
 [B,D][CE][CE][B,D] | [^A,C]3 [B,D] | x4 | x4 | x4 | x4 | x4 | x4 | x4 | x2[K:bass] x2 | x4 | x4 | %62
 x4 | x4 | x4 | x4 | x4 | x4 | x4 | x4 | x4 | x4 | x4 | x4 | x4 | x4 | x4 | x4 | x4 | x4 | x4 | %81
 x4 | x4 | x4 | x4 | x4 | x4 | x4 | x4 | x4 | x4 | x4 | x4 | x4 | x4 | x4 | x4 | x4 | x4 | x4 | %100
 x4 | x4 | x4 | x4 | x4 | x4 | x4 | x4 | x4 | x4 | x4 | x4 | x4 | x4 | x4 | x4 | x4 | x4 | x4 | %119
 x4 | x4 | x4 | x4 | x4 | x4 | x4 | x4 | x4 | x4 | x4 | x4 | x4 | x4 | x4 | x4 | x4 | x4 | x4 | %138
 x4 | x4 | x4 | x4 | x4 | x4 | x4 | x4 | x4 | x4 | x4 | x4 | x4 | x4 | x4 | x4 | x4 | x4 | x4 | %157
 x4 | x4 | x4 | x4 | x4 | x4 | x4 | x4 | x4 | x4 | x4 | x4 | x4 | x4 | x4 | x4 | x4 | x4 | x4 | %176
 x4 | x4 | x4 | x4 |] %180

